icons/linear-new-communication-connection-wifi.svg

<svg xmlns="http://www.w3.org/2000/svg" width="32px" height="32px" viewBox="0 0 32 32" version="1.1">
    <title>linear-new-communication-connection-wifi</title>
    <g id="linear-new-communication-connection-wifi" stroke-width="1" fill-rule="evenodd">
        <path d="M16,27 C17.1045695,27 18,26.1045695 18,25 C18,23.8954305 17.1045695,23 16,23 C14.8954305,23 14,23.8954305 14,25 C14,26.1045695 14.8954305,27 16,27 Z M21.6568542,19.3431458 C22.0473785,19.73367 22.0473785,20.366835 21.6568542,20.7573593 C21.26633,21.1478836 20.633165,21.1478836 20.2426407,20.7573593 C17.8994949,18.4142136 14.1005051,18.4142136 11.7573593,20.7573593 C11.366835,21.1478836 10.73367,21.1478836 10.3431458,20.7573593 C9.95262146,20.366835 9.95262146,19.73367 10.3431458,19.3431458 C13.4673401,16.2189514 18.5326599,16.2189514 21.6568542,19.3431458 Z M25.8994949,15.1005051 C26.2900192,15.4910294 26.2900192,16.1241943 25.8994949,16.5147186 C25.5089706,16.9052429 24.8758057,16.9052429 24.4852814,16.5147186 C19.7989899,11.8284271 12.2010101,11.8284271 7.51471863,16.5147186 C7.12419433,16.9052429 6.49102936,16.9052429 6.10050506,16.5147186 C5.70998077,16.1241943 5.70998077,15.4910294 6.10050506,15.1005051 C11.5678451,9.63316498 20.4321549,9.63316498 25.8994949,15.1005051 Z M30.1421356,10.8578644 C30.5326599,11.2483887 30.5326599,11.8815536 30.1421356,12.2720779 C29.7516113,12.6626022 29.1184464,12.6626022 28.7279221,12.2720779 C21.6984848,5.24264069 10.3015152,5.24264069 3.27207794,12.2720779 C2.88155365,12.6626022 2.24838867,12.6626022 1.85786438,12.2720779 C1.46734008,11.8815536 1.46734008,11.2483887 1.85786438,10.8578644 C9.66835021,3.04737854 22.3316498,3.04737854 30.1421356,10.8578644 Z" id="&#24418;&#29366;" />
    </g>
</svg>

<svg xmlns="http://www.w3.org/2000/svg" viewBox="0 0 32 32"><path fill="currentColor" d="M16 27a2 2 0 1 0 0-4 2 2 0 0 0 0 4m5.657-7.657a1 1 0 1 1-1.414 1.414 6 6 0 0 0-8.486 0 1 1 0 1 1-1.414-1.414 8 8 0 0 1 11.314 0m4.242-4.242a1 1 0 1 1-1.414 1.414c-4.686-4.687-12.284-4.687-16.97 0A1 1 0 0 1 6.1 15.1c5.467-5.468 14.331-5.468 19.798 0m4.243-4.243a1 1 0 1 1-1.414 1.414c-7.03-7.03-18.426-7.03-25.456 0a1 1 0 0 1-1.414-1.414c7.81-7.81 20.474-7.81 28.284 0"/></svg>
